X: 7740
T: Colonel Rodgers' Favourite
R: reel
M: 4/4
K: Gmajor
|:D|G2 dB cAFD|GABc dBcA|GBdB cAFD|GBAF G3D|
G2 dB cAFD|GABc defg|afge fdcA|1 GBAF G2 (3DEF:|2 GBAF G2 ag||
|:fdde fdcA|dggf g2 ag|fdde fdcA|GBAF G3g|
fdde fdcA|dggf g2 ag|f3d edcA|1 GBAF G3g:|2 GBAF G2 (3DEF||

